!!!!SEGMENT: pl-wtm--1351-fp-4576--001-001_stojowski-zygmunt--vier-stucke-quatre-morceaux-op-26-1-melodie.krn
!!!cenid: 19xx:154
!!!COM: Stojowski, Zygmunt
!!!COM-rismID: pe41019736
!!!CDT: 1870-1946
!!!CNT: Polish
!!!GTL: Vier Stücke/Quatre morceaux Op. 26
!!!OTL: 1. Mélodie
!!!OMV: 001
!!!PDT:
!!!AGN:
!!!YEC: Copyright 2022 Narodowy Instytut Fryderyka Chopina (https://polishscores.org)
!!!YEM: License CC-BY-4.0 (https://creativecommons.org/licenses/by/4.0)
!!!SMS-siglum: PL-Wtm
!!!SMS-shelfmark: 1351 fp 4576
!!!SMS-variant:
!!!SMS-altvar:
!!!SMS-shelfwork: 001-001 G
!!!NIFC-rismSourceID: 1001214689
!!!NIFC-rismChildID: 1001214689
!!!NIFC-islandoraID: pl-wtm:83036
!!!URL-pdf-islandora: https://repozytorium.nifc.pl/islandora/object/pl-wtm%3A83036/datastream/PDF/view
!!!URL-scan: https://polish.musicsources.pl/pl/lokalizacje/galeria/druki-muzyczne/18547/4 @EN{Scan on Polish Music Sources Website} @PL{Skany w portalu Dziedzictwo Muzyki Polskiej w otwartym dostępie}
!!!IIIF:
!!!ONB-nifc:
!!!AIN: 1 piano
!!!key: F
**kern	**kern	**fing	**dynam
*part1	*part1	*part1	*part1
*staff2	*staff1	*	*
*I"Pianoforte	*I"Pianoforte	*	*
*I'[pf]	*I'[pf]	*	*
*ICklav	*ICklav	*	*
*Ipiano	*Ipiano	*	*
*clefF4	*clefG2	*	*
*k[b-]	*k[b-]	*	*
*F:	*F:	*	*
*M3/4	*M3/4	*	*
=1	=1	=1	=1
*^	*^	*	*
!	!	!LO:TX:a:B:t=Andante con moto.	!	!	!
4A~/	8r	4a~/	8ryy	.	p
!	!	!LO:TX:b:i:t=cantabile	!	!	!
.	8FF\ 8C	.	8c\ 8f 8cc	.	.
4A~/	8r	4a~/	8r	.	.
.	8FF\ 8C	.	8c\ 8f 8cc	.	<
4A~/	8r	4a~/	8r	.	.
.	8FF#X\ 8C	.	8c\ 8e-X 8cc	.	[[
=2	=2	=2	=2	=2	=2
(8A/L	8r	(8a/L	8r	.	.
!	!	!	!	!	!LO:HP:a
8ryy	8GG\ 8C	8b-/	8d\	.	>
8A/	8r	8a/	8r	.	.
8G/	(4BB-\	8g/	8B-\ 8d	.	.
8F/	.	8f/	8r	.	.
8E/J	8C\)	8g/J	8B-\ 8c	.	]]
=3	=3	=3	=3	=3	=3
4A/	8r	4a/	8r	.	.
.	8FF\ 8C	.	8c\ 8f	.	<
4c/	8r	4cc/	8r	.	.
.	8F\ 8A	.	8f\ 8a	.	[
4f/	8r	4ff/	8r	.	.
.	8A\ 8c	.	8f\ 8cc	.	.
!!LO:LB:g=original	!	!	!	!
=4	=4	=4	=4	=4	=4
8e/L	8r	8ee/L	8r	.	.
8c/J	8G\ 8B-	8cc/J	8b-\	.	.
2d/)	8r	2dd/)	8r	.	.
.	8F#X\ 8A	.	8e-X\ 8a	.	.
.	8r	.	8r	.	.
.	8F#\ 8A	.	8e-\ 8a	.	.
=5	=5	=5	=5	=5	=5
!	!	!	!	!	!LO:DY:a:t=più p
(8c/L	8r	(8cc/L	8r	.	p
8G/J	8B-\	8g/J	8en\	.	.
2d/)	8r	2dd/)	8r	.	.
.	8F#X\ 8A	.	8e-X\ 8a	.	.
.	8r	.	8r	.	.
.	8F#\ 8A	.	8e-\ 8a	.	.
=6	=6	=6	=6	=6	=6
(4c/	8r	(4cc/	8r	.	.
!	!	!	!	!	!LO:HP:a
.	8Fn\ 8A-X	.	8d\ 8a-X	.	<
8Bn/L	8r	8bn/L	8r	.	.
8d/	8F\ 8G	8dd:/	8g:\	.	.
8c/	8r	8cc/	8r	.	.
8G/J	8E\	8g/J	8c\	.	[[
=7	=7	=7	=7	=7	=7
2F/	8r	2f/	8r	.	.
.	8D\ 8An	.	8c\ 8an 8cc	.	.
.	8r	.	8r	.	.
.	8D\ 8A	.	8c\ 8a 8cc	.	.
4G/)	8r	4g/)	8r	.	.
.	8D-X\	.	8Bn\ 8f 8bn	.	.
!!LO:LB:g=original	!	!	!	!
=8	=8	=8	=8	=8	=8
!	!	!LO:TX:a:i:t=pochissimo rit.	!	!	!LO:HP:a
(2G/	8r	(2g/	8r	.	>
.	8C\	.	8c\ 8e 8cc	.	.
.	8r	.	8r	.	.
.	8C\	.	8c\ 8e 8cc	.	.
4G#X/)	8r	4g#X/)	8r	.	]
.	8C\	.	8c\ 8e 8cc	.	.
=9	=9	=9	=9	=9	=9
!	!	!LO:TX:a:i:t=a tempo	!	!	!
4A~/	8r	4a~/	8r	.	p
.	8FF\ 8C	.	8c\ 8f 8cc	.	.
!	!	!	!	!	!LO:HP:a
4A~/	8r	4a~/	8r	.	<
.	8FF\ 8C	.	8c\ 8e 8cc	.	.
4A~/	8r	4a~/	8r	.	.
.	8FF#X\ 8C	.	8c\ 8e-X 8cc	.	[[
=10	=10	=10	=10	=10	=10
(8A/L	8r	(8a/L	8r	.	.
!	!	!	!	!	!LO:DY:a
.	.	(<8qcc/	.	.	p
8B-/	8GG\ 8C	8b-/)	8d\	.	.
!	!	!	!	!	!LO:HP:a
8A/	8r	8a/	8r	.	>
8G/	(4BB-\	8g/	8B-\ 8d	.	.
8F/	.	8f/	8r	.	.
8E/J	8C\)	8g/J	8B-\ 8c	.	]]
=11	=11	=11	=11	=11	=11
!	!	!	!	!	!LO:HP:a
4A/	8r	4a/	8r	.	<
.	8FF\ 8C	.	8c\ 8f	.	.
4c/	8r	4cc/	8r	.	.
.	8F\ 8A	.	8f\ 8a	.	.
4a/	8r	4aa/	8r	.	[
.	8E\ 8A 8c	.	8a\ 8cc 8ff	.	.
!!LO:LB:g=original	!	!	!	!
=12	=12	=12	=12	=12	=12
8g/L	8r	8gg/L	8r	.	.
8d/J	8D\ 8G	8dd/J	8f\ 8g 8bn	.	.
2a/)	8r	2aa/)	8r	.	.
.	8F\ 8c	.	8a\ 8cc 8ff	.	.
.	8r	.	8r	.	.
.	8E\ 8c	.	8a\ 8cc 8ff	.	.
=13	=13	=13	=13	=13	=13
(8g/L	8r	(8gg/L	8r	.	.
8d/J	8D\ 8G	8dd/J	8f\ 8g 8bn	.	.
2f/)	8r	2ff/)	8r	.	>
.	8D-X\ 8B-X	.	8f\ 8b-X	.	.
.	8r	.	8r	.	.
.	8D-\ 8B-	.	8f\ 8b-	.	]]
=14	=14	=14	=14	=14	=14
*	*	*	*^	*	*
4.e/	8r	(4.ee/	8r	2ryy	.	.
.	8D-X\ 8B-	.	8f#X\ 8b-	.	.	.
.	8r	.	8r	.	.	.
!	!	!	!	!	!	!LO:DY:t=molto p
4.ryy	8C:\ 8B-:	8gg::/L	N(<8g::\L 8b-::	.	.	p
.	8r	8ffn/	8fn</	8r	.	.
.	8C\ 8A	8cc/J	8c</J	8fn\	.	.
*	*	*	*v	*v	*	*
=15	=15	=15	=15	=15	=15
2B-/N)	8r	2b-/)	8r	.	.
.	8GG\ 8D	.	8f\ 8dd 8ff	.	.
.	8r	.	8r	.	.
!	!	!	!	!	!LO:HP:a
.	8GG\ 8D	.	8f\ 8dd 8ff	.	<
(8A/L	8r	(8a/L	8r	.	.
8G/J	8C\	8g/J	8e\ 8ee	.	.
!!LO:LB:g=original	!	!	!	!
=16	=16	=16	=16	=16	=16
8A/L	8r	8f/L	8r	.	.
8A/J)	8FF\ 8D	8a/J)	8Bn\ 8bn	.	.
2G~/	8r	2g~/	8r	.	[
.	8EE\ 8C	.	8c\ 8cc	.	>
.	8r	.	8r	.	.
.	8EE\ 8C	.	8c\ 8cc	.	]]
=17	=17	=17	=17	=17	=17
!	!	!	!LO:TX:b:Bi:t=cresc._ :problem:dynamics with line extensions	!	!LO:HP:t=cresc._
(4G/	8r	(4g/	8r	.	<
.	8EE\ 8C	.	8c\ 8cc	.	.
4A/	8r	4a/	8r	.	.
.	8FF#X\ 8C	.	8c\ 8e-X 8cc	.	.
4B-X/	8r	4b-X/	8r	.	.
.	8GG\ 8C	.	8c\ 8en 8cc	.	.
=18	=18	=18	=18	=18	=18
4d/	8r	4dd/	8r	.	.
.	8BB-\ 8G	.	8e\ 8g	.	.
8c/L	8r	8cc/L	8r	.	.
8B-/	8GG\	8b-/	8d\ 8f	.	.
8A/	8r	8a/	8r	.	.
8G/J	8BB-\	8g/J	8d\ 8f	.	.
=19	=19	=19	=19	=19	=19
4B-/	8r	4b-/	8r	.	.
.	8C\	.	8d\ 8e	.	.
4A/	8r	4a/	8r	.	.
.	8FF#X\ 8E-X	.	4d\ 4e-X	.	.
4c/	8r	4cc/	.	.	.
.	8AA\ 8F#X	.	8c\ 8e-	.	.
!!LO:PB:g=original	!	!	!	!
=20	=20	=20	=20	=20	=20
!	!	!	!	!	!LO:HP:a
8B-/L	8r	8b-/L	8r	.	>
8A:/J	8BB-:\	8a/J	8d\ 8fn	.	.
2G/)	8r	2g/)	8r	.	.
.	(4BBn\	.	(4d\ 4f	.	.
.	8C\)	.	8c\) 8e	.	]]
=21	=21	=21	=21	=21	=21
(4G/	8r	(4g/	8r	.	.
.	8EE\ 8C	.	8c\ 8cc	.	<
4A/	8r	4a/	8r	.	.
.	8FF#X\ 8C	.	8c\ 8e-X 8cc	.	.
4B-/	8r	4b-/	8r	.	[
.	8GG\ 8C	.	8c\ 8en 8cc	.	.
=22	=22	=22	=22	=22	=22
!	!	!	!	!	!LO:DY:a
4f/	8r	4ff/	8r	.	p
.	8A\ 8B-	.	8a\ 8b-	.	.
8e/L	8r	8ee/L	8r	.	.
8d/	8G\ 8B-	8dd/	8g\ 8b-	.	.
8c/	8r	8cc/	8r	.	.
!	!	!	!	!	!LO:HP:a:t=poco cresc.
8B-/J	8F\ 8G	8b-/J	8d\ 8g	.	<
=23	=23	=23	=23	=23	=23
4d/	8r	4dd/	8r	.	.
.	8E\ 8G	.	8e\ 8g	.	.
4A/	8r	4a/	8r	.	.
.	8E-X\ 8G	.	8e-X\ 8g	.	.
4c/	8r	4cc/	8r	.	.
.	8D\ 8F#X	.	8d\ 8f#X	.	.
!!LO:LB:g=original	!	!	!	!
=24	=24	=24	=24	=24	=24
8G/L	8r	8g/L	8r	.	.
8A/J	8D-X\ 8Fn	8a/J	8d-X\ 8fn	.	.
2B-/)	8r	2b-/)	8r	.	.
.	(4C\ 4En	.	(4c\ 4en	.	>
.	8C\) 8E-X	.	8c\) 8e-X	.	]
=25	=25	=25	=25	=25	=25
!	!	!	!LO:TX:b:Bi:t=più cresc. ed incalzando_:problem:dynamics with line extensions	!	!LO:HP:a:t=più cresc. ed incalzando_
(4A/	8r	(4a/	8r	.	<
.	8FF#X\ 8D	.	8d\ 8dd	.	.
4B-/	8r	4b-/	8r	.	.
.	8GG\ 8D	.	8d\ 8g 8dd	.	.
4c/	8r	4cc/	8r	.	.
.	8AA\ 8D	.	8d\ 8g 8dd	.	.
=26	=26	=26	=26	=26	=26
4e-X/	8r	4ee-X/	8r	.	.
.	8C\ 8G	.	8e-X\ 8g	.	.
8d/L	8r	8dd/L	8r	.	.
8c/	8AA\	8cc/	8e-\ 8g	.	.
8B-/	8r	8b-/	8r	.	.
8A/J)	8C\	8a/J)	8e-\ 8g	.	.
=27	=27	=27	=27	=27	=27
(4c/	8r	(4cc/	8r	.	.
.	8E-X\ 8G 8B-	.	8g\ 8b-	.	.
4d/	8r	4dd/	8r	.	.
.	8D\ 8G 8B-	.	8g\ 8b-	.	.
4e-X/	8r	4ee-X/	8r	.	.
.	8C\ 8G 8B-	.	8g\ 8b-	.	.
!!LO:LB:g=original	!	!	!	!
=28	=28	=28	=28	=28	=28
4g/	8r	4gg/	8r	.	.
.	8E-X\ 8c	.	8a\ 8cc	.	.
8f/L	8r	8ff/L	8r	.	.
8e-X/	8C\	8ee-X/	8g\ 8b-	.	.
8d/	8r	8dd/	8r	.	.
8c/J)	8E-\	8cc/J)	8g\ 8b-	.	.
=29	=29	=29	=29	=29	=29
2g~/	8r	2gg~/	8r	.	.
.	8E-X\ 8B- 8c	.	8b-\ 8cc	.	.
.	8r	.	8r	.	.
.	8E-\ 8B- 8c	.	8b-\ 8cc	.	.
4ryy	8r	4a^/ 4aa	8r	.	.
.	8E-\ 8A 8c#X	.	8cc#X\ 8gg	.	.
*v	*v	*	*	*	*
*	*v	*v	*	*
=30	=30	=30	=30
*ped	*	*	*
(8DD\L	2.ryy	.	.
8AA\	.	.	.
8F#X\	.	.	.
8A>/	.	.	.
8cn>/ 8f#X>	.	.	.
8a>/J)	.	.	.
*Xped	*	*	*
=31	=31	=31	=31
*ped	*	*	*
(8DD\L	2.ryy	.	.
8AA\	.	.	.
8Fn\	.	.	.
8A>/	.	.	.
8Bn>/ 8fn>	.	.	.
8a>/J)	.	.	.
*Xped	*	*	*
!!LO:LB:g=original	!	!
=32	=32	=32	=32
*^	*	*	*
*ped	*	*	*	*
!LO:TUP:b	!	!	!	!
(12CC/L	2ryy	[2.aa^\	.	f
12C/	.	.	.	.
12F/J	.	.	.	.
12A\L	.	.	.	.
12F\	.	.	.	.
12c\J	.	.	.	.
*Xtuplet	*tuplet	*	*	*
6.A/	N[12A\L	.	.	.
.	N[>12f\	.	.	.
.	N[>12c\J	.	.	.
*v	*v	*	*	*
=33	=33	=33	=33
2A\N]) 2cN] 2fN] 2a	(8aa\L]	.	.
.	8ff\	.	.
.	8ee\	.	.
*Xped	*	*	*
.	8dd\	.	.
4r	8cc\	.	.
.	8a\J)	.	.
=34	=34	=34	=34
*	*^	*	*
!	!	!	!	!LO:HP:t=poco a poco dim. e calando
[2.C\ [2.B- [2.d	(8g/L	[2.f\	.	>
.	8a/	.	.	.
.	8cc/	.	.	.
.	8a/	.	.	.
.	8g/	.	.	.
.	8a/J	.	.	.
=35	=35	=35	=35	=35
2.C\_ 2.B-_ 2.d_	8cc/L	2f\]	.	.
.	8a/	.	.	.
.	8g/	.	.	.
.	8a/	.	.	.
.	8f/	[4f\	.	.
.	8g/J	.	.	.
!!LO:LB:g=original	!	!	!
=36	=36	=36	=36	=36
2.C\_ 2.B-_ 2.d_	8a/L	4f\]	.	.
.	8g/	.	.	.
.	8f/	2f\	.	.
.	8g/	.	.	.
.	8b-/	.	.	.
.	8g/J	.	.	.
=37	=37	=37	=37	=37
*^	*	*	*	*
2d/]	2.C\_ 2.B-]	8f/L	2f\	.	.
.	.	8g/	.	.	.
.	.	8b-/	.	.	.
.	.	8g/	.	.	.
((4d-X/	.	8f/	4f\	.	.
.	.	8g/J)	.	.	.
*	*	*v	*v	*	*
=38	=38	=38	=38	=38
8c/)	2.C\_	(>4e/	.	.
4c~/	.	.	.	.
.	.	4dn/ 4f	.	<
4Bn~/	.	.	.	.
.	.	4e/ 4g	.	[[
[8B-X~/	.	.	.	.
=39	=39	=39	=39	=39
*	*	*^	*	*
8B-/]	2.C\]	4d/ 4b-	[2b-\	.	.
4A/	.	.	.	.	.
.	.	4e/ 4cc	.	.	>
4G/	.	.	.	.	.
.	.	4f/) 4dd	8b-\L]	.	.
8F/)	.	.	8a\J	.	]]
*v	*v	*	*	*	*
!!LO:LB:g=original	!	!	!
=40	=40	=40	=40	=40
!LO:TUP:b	!LO:TX:b:i:t=dolce	!	!	!
(12CC/L	(2gg/	2.g\ 2.b-	.	.
12GG/	.	.	.	.
12E/J	.	.	.	.
12F\L	.	.	.	.
12E\	.	.	.	.
12G\J	.	.	.	.
4F\)	4dd/	.	.	.
=41	=41	=41	=41	=41
*Xtuplet	*	*	*	*
(12CC/L	4ee/	2.g\ 2.b-	.	.
12GG/	.	.	.	.
12AA/J	.	.	.	.
12BB-/L	4dd/	.	.	.
12C/	.	.	.	.
12D/J	.	.	.	.
4E\)	4cc/)	.	.	.
=42	=42	=42	=42	=42
!	!	!LO:TX:b:Bi:t=poco accelerando e cresc._:problem:dynamics with line extensions	!	!LO:HP:t=poco accelerando e cresc._
(12CC/L	(2gg/	2.g\ 2.b-	.	<
12GG/	.	.	.	.
12E/J	.	.	.	.
12F\L	.	.	.	.
12E\	.	.	.	.
12G\J	.	.	.	.
4F\)	4dd/	.	.	.
=43	=43	=43	=43	=43
(12CC/L	4ee/	2.g\ 2.b-	.	.
12GG/	.	.	.	.
12AA/J	.	.	.	.
12BB-/L	4dd/	.	.	.
12C/	.	.	.	.
12D/J	.	.	.	.
4E\)	4cc/)	.	.	.
!!LO:PB:g=original	!	!	!
=44	=44	=44	=44	=44
(12CC/L	(2bb-/	2.b-\ 2.dd	.	.
12C/	.	.	.	.
12D/J	.	.	.	.
12E\L	.	.	.	.
12F\	.	.	.	.
12G\J	.	.	.	.
4A\)	4aa/	.	.	.
=45	=45	=45	=45	=45
(12CC/L	4ee/	2.b-\ 2.dd	.	.
12C/	.	.	.	.
12G/J	.	.	.	.
12A\L	4ff/	.	.	.
12G\	.	.	.	.
12B-\J	.	.	.	.
4e\)	4gg/)	.	.	.
=46	=46	=46	=46	=46
(12CC/L	(2bb-/	2.b-\ 2.dd	.	.
12C/	.	.	.	.
12D/J	.	.	.	.
12E\L	.	.	.	.
12F\	.	.	.	.
12G\J	.	.	.	.
4A\)	4ff/	.	.	.
=47	=47	=47	=47	=47
(12CC/L	4ee/	2.b-\ 2.dd	.	.
12C/	.	.	.	.
12G/J	.	.	.	.
12A\L	4ff/	.	.	.
12G\	.	.	.	.
12B-\J	.	.	.	.
4e\)	4gg/)	.	.	.
!!LO:LB:g=original	!	!	!
=48	=48	=48	=48	=48
(12CC/L	(4dd/	4cc\	.	.
12C/	.	.	.	.
12F/J	.	.	.	.
!	!	!	!	!LO:HP:t=dim. e calando
12G\L	4ee/	4b-\	.	>
12A\	.	.	.	.
12B-\J	.	.	.	.
4c\)	4ff/)	[4a\	.	.
=49	=49	=49	=49	=49
(12CC/L	(4b-/	4a\]	.	.
12C/	.	.	.	.
12D/J	.	.	.	.
12E\L	4cc/	4g\	.	.
12F\	.	.	.	.
12G\J	.	.	.	.
4A\)	4cc/)	[4f\	.	.
=50	=50	=50	=50	=50
(12CC\L	(4g/	(4.f\]	.	.
12C\	.	.	.	.
12c\J	.	.	.	.
12B-\L	4a/	.	.	.
12A\	.	.	.	.
.	.	8e\L	.	.
12G\J	.	.	.	.
12F\L	[4b-/)	8d\	.	.
12E\	.	.	.	.
.	.	8f\J	.	.
12D\J	.	.	.	.
=51	=51	=51	=51	=51
4C/)	(2b-/]	8e\L	.	.
.	.	8g\	.	.
4r	.	8f\	.	.
.	.	8e\	.	.
!	!LO:TX:t=P:problem: ligatura w t. 51 od góry w t. 52 od dołu	!	!	!
4r	[4g/	8e-X\	.	.
!	!	!LO:TX:t=P:problem: brak ligatury w t. 51, w t. 52 obecna	!	!
.	.	[8d\J	.	.
!!LO:LB:g=original	!	!	!
=52	=52	=52	=52	=52
*	*	*^	*	*
2.r	[2.b-/)	8d\L] 8g]	2ryy	.	.
.	.	8g\	.	.	.
.	.	8f\	.	.	>
.	.	8en\	.	.	.
.	.	8e-X\	[4g/	.	.
.	.	8d\J	.	.	]]
=53	=53	=53	=53	=53	=53
!	!LO:TX:a:i:t=poco rit.	!	!	!	!
2.r	(4b-/]	8f\L	2f/ 2g]	.	.
.	.	8d\J	.	.	.
.	4bn/	8d-X\	.	.	.
.	.	4c\	.	.	.
.	4en/) 4cc	.	4ryy	.	.
.	.	8B-X\)	.	.	.
*	*	*v	*v	*	*
=54	=54	=54	=54	=54
*tuplet	*	*	*	*
!	!LO:TX:a:B:t=Tempo I.	!	!	!
(<12FF/L	4a~/	8r	.	p
12C/	.	.	.	.
.	.	8c\ 8f 8cc	.	.
12A/J	.	.	.	.
!LO:TUP:a	!	!	!	!
12G\L	4a~/	8r	.	.
12F\	.	.	.	.
.	.	8c\ 8e 8cc	.	.
12E\J	.	.	.	.
12D/L	4a~/	8r	.	.
12C/	.	.	.	.
.	.	8c\ 8e-X 8cc	.	.
12FF#X/J	.	.	.	.
=55	=55	=55	=55	=55
12GG/L	(8a/L	8r	.	.
12FF#X/	.	.	.	.
.	8b-/	8B-\ 8d	.	.
12GG/J	.	.	.	.
12AA/L	8a/	8r	.	.
12BB-/	.	.	.	.
.	8g/	8d\	.	.
12BBn/J	.	.	.	.
12C/L	8fn/	8r	.	.
12D/	.	.	.	.
.	8g/J	8B-X\ 8c	.	.
12E/J	.	.	.	.
!!LO:LB:g=original	!	!	!
=56	=56	=56	=56	=56
8F/L)	4a/	(12A\L	.	.
.	.	12c\	.	.
(<8FF/J 8C	.	.	.	.
.	.	12d\J	.	.
!	!	!	!	!LO:HP:a
8A\L	4cc/	12e\L	.	<
.	.	12f\	.	.
8F\J	.	.	.	.
.	.	12g\J	.	.
8c\L	4ff/	12a\L	.	[
.	.	12b-\	.	.
8A\J	.	.	.	.
.	.	12cc\J	.	.
=57	=57	=57	=57	=57
*	*	*Xtuplet	*	*
8G\L	8ee/L	12b-\L	.	.
.	.	12a\	.	.
8B-\	8cc/J	.	.	.
.	.	12g\J	.	.
8A\	2dd/)	12f#X\L	.	.
.	.	12e\	.	.
8c\	.	.	.	.
.	.	12g\J	.	.
8A\	.	12f#\L	.	.
.	.	12g\	.	.
8F#X\J)	.	.	.	.
.	.	12a\J)	.	.
=58	=58	=58	=58	=58
!	!	!	!	!LO:HP:a
(<8G\L	(8cc/L	N(<12b-\L	.	>
.	.	12a\	.	.
8B-\	8g/J	.	.	.
.	.	12g\J	.	.
8A\	2dd/)	12f#X\L	.	]
.	.	12e\	.	.
8c\	.	.	.	.
.	.	12g\J	.	.
8A\	.	12f#\L	.	.
.	.	12g\	.	.
8F#X\J	.	.	.	.
.	.	12a\J	.	.
=59	=59	=59	=59	=59
8Fn\L	(8cc/L	12a-X\L	.	.
.	.	12g\	.	.
!	!	!	!	!LO:HP:a
8c\	8a-/	.	.	<
.	.	12fn\J	.	.
8G\	8bn/	12e\L	.	.
.	.	12f\	.	.
8F\	8dd/	.	.	[
.	.	12d\J	.	.
8E\	8cc/	12g\L	.	.
.	.	12f\	.	.
8G\J	8g/J	.	.	.
.	.	[12e\J	.	.
!!LO:LB:g=original	!	!	!
=60	=60	=60	=60	=60
8A\L	[2f/	12e\L]	.	.
.	.	12d\	.	.
8D\J	.	.	.	.
.	.	12c\J	.	.
8GG\L)	.	12Bn\L	.	.
.	.	12A\	.	.
8G\J	.	.	.	.
.	.	12G</J	.	.
12F\L	4B/) 4f] 4g	4ryy	.	<
12E\	.	.	.	.
12D\J	.	.	.	.
=61	=61	=61	=61	=61
*Xtuplet	*	*	*	*
12C/L	(2g/	4B-X\ 4e	.	.
12D/	.	.	.	.
12C/J	.	.	.	.
12BB-X/L	.	2d\	.	.
12AA/	.	.	.	.
12GG/J	.	.	.	.
12FF/L	[4a-X/)	.	.	[
12EE/	.	.	.	.
12DD/JN)	.	.	.	.
=62	=62	=62	=62	=62
(12CC/L	(4a-/]	2.e-X\	.	.
12C/	.	.	.	.
12A-X/J	.	.	.	.
!	!	!	!	!LO:HP:t=cresc. ed affrettando molto
12E-X\L	4b-/	.	.	<
12c\	.	.	.	.
12A-\J)	.	.	.	.
4r	4cc/	.	.	.
=63	=63	=63	=63	=63
(12BBB-/L	4ee-X/	2f\ 2a-X	.	.
12BB-/	.	.	.	.
12F/J	.	.	.	.
12A-X\L	8dd-X/L	.	.	.
12F\	.	.	.	.
.	8cc/J	.	.	.
12d-X\J)	.	.	.	.
(8EE-X'/L	4g/) 4b-	(8f\L	.	.
8BB-'/J) 8G	.	8e-X\J)	.	.
!!LO:LB:g=original	!	!	!
=64	=64	=64	=64	=64
(12DD-X/L	(4ff/	2f\ 2a-X	.	.
12AA-X/	.	.	.	.
12F/J	.	.	.	.
12A-X\L	8ee-X/L	.	.	.
12F\	.	.	.	.
.	8dd-X/J	.	.	.
12d-X\J)	.	.	.	.
(8EEn'/L	4cc/)	(8a-\L	.	.
8C'/J) 8An	.	8g\J)	.	.
=65	=65	=65	=65	=65
(12FF/L	(4aa-X/	2a-X\ 2cc	.	.
12C/	.	.	.	.
12A-X/J	.	.	.	.
12c\L	8gg/L	.	.	.
12A-\	.	.	.	.
.	8ff/J	.	.	.
12f\J)	.	.	.	.
(8GG'\L	4ee-X/)	(8cc\L	.	.
8E-X'\J) 8d-X	.	8b-\J)	.	.
=66	=66	=66	=66	=66
(12FF/L	8r	(4dd-X\	.	f
12D-X/	.	.	.	.
.	8a-X/ 8ff 8aa-X	.	.	.
12F/J	.	.	.	.
12d-X\L	8r	8cc\L	.	.
12A-X\	.	.	.	.
.	8ff/ 8aa-	8b-\J	.	.
12f\J)	.	.	.	.
4r	8r	8a-X\L	.	.
.	8dd-X/	8d-X\J)	.	.
=67	=67	=67	=67	=67
12GG/L	4ryy	(>2.f\	.	.
12B-/	.	.	.	.
12d-X>\J 12b-> 12dd-X>	.	.	.	.
!	!LO:TX:b:i:t=m.s.	!	!	!
12an>\L	4ryy	.	.	.
12b->\	.	.	.	.
12dd->\J 12ff>	.	.	.	.
!	!LO:TX:a:i:t=m.d.	!	!	!
4ryy	12aa/L	.	.	.
.	12bb-/	.	.	.
.	12ddd-X/J) 12fff	.	.	.
!!LO:PB:g=original	!	!	!
=68	=68	=68	=68	=68
12GG-X/L	2ryy	(>2.f-X\	.	.
12B-/	.	.	.	.
12d-X>\J 12b-> 12dd-X>	.	.	.	.
!	!LO:TX:b:i:t=m.s.	!	!	!
12a>\L	.	.	.	.
12b->\	.	.	.	.
12dd->\J 12ff-X>	.	.	.	.
4ryy	12aa/L	.	.	.
.	12bb-/	.	.	.
.	12ddd-X/J) 12fff-X	.	.	.
=69	=69	=69	=69	=69
12GG-X/L	4ryy	(>2.e-X\	.	.
12A/	.	.	.	.
12c>\J 12a> 12cc>	.	.	.	.
!	!LO:TX:b:i:t=m.s.	!	!	!
12g#X>\L	4ryy	.	.	>
12a>\	.	.	.	.
12cc>\J 12ee-X>	.	.	.	.
4ryy	12gg#X/L	.	.	.
.	12aa/	.	.	.
.	12ccc/J) 12eee-X	.	.	]]
*	*v	*v	*	*
=70	=70	=70	=70
!	!	!	!LO:DY:t=mf espressivo
2.r	(>4e-X/	.	mf
.	4f/	.	.
.	4g-X/	.	.
=71	=71	=71	=71
*	*^	*	*
2.AA-X\ 2.G-X	4b-/	2.c\	.	.
.	8a-X/L	.	.	.
.	8g-X/	.	.	.
.	8f/	.	.	.
.	8e-X/J)	.	.	.
!!LO:LB:g=original	!	!	!
=72	=72	=72	=72	=72
2.AAn/ 2.F#X	(4f#X~/	2.c#X\	.	<
.	4g#X~/	.	.	.
.	4an~/	.	.	.
=73	=73	=73	=73	=73
2.BBn\ 2.A	4cc#X/	[2.d#X\	.	[
.	8bn/L	.	.	.
.	8a/	.	.	.
.	8g#X/	.	.	.
.	8f#X/J	.	.	.
=74	=74	=74	=74	=74
*tuplet	*	*	*	*
*ped	*	*	*	*
!	!LO:TX:a:i:t=ad lib.	!	!	!
12FFFn/L	2a^/)	4d#\]	.	f
12FF/	.	.	.	.
12C/J	.	.	.	.
!	!LO:TX:b:i:t=m.d.	!	!	!
12D#X/L	.	2r	.	.
12A/	.	.	.	.
12c>\J	.	.	.	.
*	*tuplet	*	*	*
*	*Xbrackettup	*	*	*
!	!LO:TUP:a	!	!	!
6ryy	12d#X/L	.	.	.
.	12a/J	.	.	.
!LO:TX:a:i:t=m.s.	!	!	!	!
12ryy	12cc\	.	.	.
*	*v	*v	*	*
=75	=75	=75	=75
8dd#X>\L	4ryy	.	.
8aa>\J	.	.	.
*	*8va	*above	*
!	!LO:TX:b:i:t=m.d.	!	!
2r	8ccc/L	1	.
.	8ddd#X/J	2	.
.	8aaa\L	5	.
.	(8cccc\J	1	.
*	*X8va	*	*
!!LO:LB:g=original	!	!	!
=76	=76	=76	=76
*	*8va	*	*
2.r	4aaaa^\)	3	.
*	*X8va	*	*
.	4r	.	.
.	4r	.	.
=77	=77	=77	=77
2.r	[>2.a^>/	.	.
*Xped	*	*	*
=78	=78	=78	=78
*	*^	*	*
*ped	*	*	*	*
2.AA/ 2.E	2.a/_	2.c\	.	p
*Xped	*	*	*	*
=79	=79	=79	=79	=79
!	!LO:TX:a:i:t=molto rit. rubato	!	!	!
4BB-/ 4D	(8a/L]	4d\	.	.
.	8b-/	.	.	.
2C\ 2B-	8a:/	2e:\	.	.
.	8g/	.	.	.
.	8f/	.	.	.
.	8g/J)	.	.	.
=80	=80	=80	=80	=80
*^	*	*	*	*
!	!	!LO:TX:a:i:t=in tempo	!	!	!
(4A/	8r	(4a/	8r	.	.
.	8FF\ 8C	.	8c\ 8f	.	.
4c/	8r	4cc/	8r	.	.
.	8F\ 8A	.	8f\ 8a	.	.
4a/	8r	4aa/	8r	.	.
.	8E\ 8A 8c	.	8a\ 8cc 8ff	.	.
!!LO:LB:g=original	!	!	!	!	!
=81	=81	=81	=81	=81	=81
8g/L	8r	8gg/L	8r	.	.
8d/J)	8D\ 8G	8f/J) 8g 8bn 8dd	4ryy	.	.
2A~/	8r	2a~/	.	.	.
.	8FF\ 8C	.	8c\ 8f	.	.
.	8r	.	8r	.	.
.	8EE\ 8C	.	8c\ 8f	.	.
*	*	*v	*v	*	*
=82	=82	=82	=82	=82
4.ryy	8r	(>8g/L	.	.
.	8DD\ 8GG 8D	8F</J 8G< 8Bn< 8d	.	.
.	8r	4f/	.	.
N[>4.G/ 4.B-	(8DD-X\ 8D-X	.	.	.
!	!	!LO:TX:a:i:t=poco stretto	!	!
.	4CC\) 4C	4e/	.	.
*v	*v	*	*	*
=83	=83	=83	=83
!	!	!	!LO:HP:a
4BBB-X\ 4BB-X	4G</N] 4d-X 4g	.	<
4AAA\ 4AA	4A</ 4c 4f	.	.
4GGG/ 4GG	4Bn/ 4f 4a	.	[
=84	=84	=84	=84
*	*^	*	*
!	!	!	!	!LO:HP:a
4BBB-X/ 4BB-X	4d-X/ 4e 4g	4ryy	.	>
8r	4cc/	8r	.	.
8AAA/ 8AA	.	8c\ 8f	.	.
4AAA-X/ 4AA-X	4Bn:/) 4f: 4ddn:	4ryy	.	]
*	*v	*v	*	*
!!LO:LB:g=original	!	!	!
=85	=85	=85	=85
*ped	*	*	*
!LO:TX:t=P:problem: błąd wyświetlania VHV, po dodaniu "N" źle wyświetla łuk legato	!	!	!
(8GGG/L	2ryy	.	pp
8GG/J	.	.	.
12F\L	.	.	.
12B-X\	.	.	.
12d\J	.	.	.
4ryy	16f\LL	.	.
.	16b-X\	.	.
.	16dd\	.	.
.	16ff\JJ	.	.
=86	=86	=86	=86
!	!LO:TX:a:i:t=m.d.	!	!
!	!LO:TX:b:i:t=m.g.	!	!
.	(>8qddd/)	.	.
*	*8va	*	*
2.r	8dddd\)	.	.
*	*X8va	*	*
.	8r	.	.
.	4r	.	.
.	4r	.	.
*Xped	*	*	*
=87	=87	=87	=87
*ped	*	*	*
4GGG-X/ 4GG-X	4B-/ 4e 4cc	.	.
4r	4r	.	.
4r	4r	.	.
*Xped	*	*	*
=88	=88	=88	=88
*	*^	*	*
*ped	*	*	*	*
!	!LO:TX:a:i:t=a tempo	!	!	!
(<8FFF/L	4a/	(12A\L	.	.
.	.	12c\	.	.
8FF/J	.	.	.	.
.	.	12d\J	.	.
8A\L	4cc/	12e\L	.	.
.	.	12f\	.	.
8F\	.	.	.	.
.	.	12g\J	.	.
8c\	4ff/	12a\L	.	.
.	.	12b-\	.	.
8A\J	.	.	.	.
.	.	12cc\J	.	.
*Xped	*	*	*	*
*clefG2	*	*	*	*
!!LO:LB:g=original	!	!	!	!
=89	=89	=89	=89	=89
*ped	*	*Xtuplet	*	*
8f/L	4aa/	12a\L	.	.
.	.	12cc\	.	.
8c/	.	.	.	.
.	.	12dd\J	.	.
*	*8va	*	*	*
8a/	4ccc/	12ee\L	.	.
.	.	12ff\	.	.
8f/	.	.	.	.
.	.	12gg\J	.	.
8cc/	4fff/	12aa\L	.	.
.	.	12bb-\	.	.
8a/J	.	.	.	.
.	.	12ccc\J	.	.
*Xped	*	*	*	*
=90	=90	=90	=90	=90
*ped	*	*	*	*
8ff\L	4aaa/	12aa\L	.	.
.	.	12ccc\	.	.
8cc\	.	.	.	.
.	.	12ddd\J	.	.
8aa\	4cccc/	12eee\L	.	.
.	.	12fff\	.	.
8ff\	.	.	.	.
.	.	12ggg\J	.	.
8ccc\	4ffff/	12aaa\L	.	.
.	.	12bbb-\	.	.
8aa\J	.	.	.	.
.	.	12cccc\J	.	.
*	*v	*v	*	*
=91	=91	=91	=91
8fff\)	8aaaa\)	.	.
*	*X8va	*	*
8r	8r	.	.
4r	4r	.	.
4r	4r	.	.
*clefF4	*	*	*
=92	=92	=92	=92
*	*^	*	*
!	!LO:TX:a:i:t=m.s.	!	!	!
4FF::/ 4C:: 4A::	4ff/ 4aa	4c:::\ 4f::: 4a::: 4cc:::	2 4	.
4r	4r	4ryy	.	.
4r	4r	4ryy	.	.
*	*v	*v	*	*
=93	=93	=93	=93
4FFF/	2.r	.	.
4r	.	.	.
4r	.	.	.
*Xped	*	*	*
==	==	==	==
*-	*-	*-	*-
!!!system-decoration: {(s1,s2)}
!!!RDF**kern: > = above
!!!RDF**kern: < = below
!!!RDF**kern: N = linked
!!!ENC: Andrzej Gręziak
!!!END: 2023-10-20
!!!EED: Jan Barakat
!!!EEV: 2023-11-17
